;FLAVOR:Marlin
;TIME:11245
;Filament used: 7.91719m
;Layer height: 0.2
;MINX:41.5
;MINY:83
;MINZ:0.2
;MAXX:188.5
;MAXY:147
;MAXZ:3
;Generated with Cura_SteamEngine 4.8.0
M140 S60
M105
M190 S60
M104 S200
M105
M109 S200
M82 ;absolute extrusion mode
; Ender 3 Custom Start G-code
G92 E0 ; Reset Extruder
G28 ; Home all axes
G1 Z2.0 F3000 ; Move Z Axis up little to prevent scratching of Heat Bed
G1 X0.1 Y20 Z0.2 F5000.0 ; Move to start position
G1 X0.1 Y200.0 Z0.2 F1500.0 E10 ; Draw the first line
G1 X0.4 Y200.0 Z0.2 F5000.0 ; Move to side a little
G1 X0.4 Y20 Z0.2 F1500.0 E20 ; Draw the second line
G92 E0 ; Reset Extruder
G1 Z2.0 F3000 ; Move Z Axis up little to prevent scratching of Heat Bed
G1 X5 Y20 Z0.2 F5000.0 ; Move over to prevent blob squish
G92 E0
G92 E0
G1 F1500 E-6.5
;LAYER_COUNT:15
;LAYER:0
M107
G0 F6000 X42.452 Y83.311 Z0.2
;TYPE:SKIRT
G1 F1500 E0
G1 F1200 X42.811 Y83.135 E0.0133
G1 X43.197 Y83.033 E0.02658
G1 X43.453 Y83.01 E0.03513
G1 X43.83 Y83 E0.04767
G1 X185.822 Y83 E4.77034
G1 X186.52 Y83.01 E4.79356
G1 X186.917 Y83.056 E4.80685
G1 X187.296 Y83.179 E4.82011
G1 X187.644 Y83.376 E4.83341
G1 X187.946 Y83.638 E4.8467
G1 X188.19 Y83.954 E4.85998
G1 X188.366 Y84.313 E4.87328
G1 X188.467 Y84.699 E4.88655
G1 X188.49 Y84.954 E4.89507
G1 X188.5 Y85.33 E4.90758
G1 X188.5 Y144.289 E6.86856
G1 X188.491 Y145.016 E6.89274
G1 X188.446 Y145.413 E6.90603
G1 X188.323 Y145.793 E6.91932
G1 X188.127 Y146.141 E6.9326
G1 X187.866 Y146.443 E6.94588
G1 X187.55 Y146.688 E6.95918
G1 X187.192 Y146.864 E6.97244
G1 X186.805 Y146.966 E6.98576
G1 X186.547 Y146.99 E6.99437
G1 X186.17 Y147 E7.00692
G1 X44.181 Y147 E11.72949
G1 X43.483 Y146.991 E11.75271
G1 X43.086 Y146.946 E11.766
G1 X42.706 Y146.823 E11.77928
G1 X42.358 Y146.627 E11.79257
G1 X42.056 Y146.365 E11.80586
G1 X41.812 Y146.049 E11.81914
G1 X41.635 Y145.691 E11.83243
G1 X41.534 Y145.304 E11.84573
G1 X41.51 Y145.045 E11.85438
G1 X41.5 Y144.658 E11.86726
G1 X41.5 Y85.647 E13.82997
G1 X41.509 Y84.982 E13.85209
G1 X41.554 Y84.585 E13.86538
G1 X41.678 Y84.205 E13.87867
G1 X41.874 Y83.857 E13.89196
G1 X42.136 Y83.555 E13.90525
G1 X42.452 Y83.311 E13.91853
G0 F6000 X42.525 Y83.747
G1 F1200 X42.829 Y83.56 E13.9304
G1 X43.168 Y83.446 E13.9423
G1 X43.464 Y83.41 E13.95222
G1 X43.83 Y83.4 E13.9644
G1 X185.816 Y83.4 E18.68687
G1 X186.514 Y83.41 E18.71009
G1 X186.868 Y83.455 E18.72196
G1 X187.204 Y83.578 E18.73386
G1 X187.504 Y83.771 E18.74572
G1 X187.753 Y84.027 E18.7576
G1 X187.94 Y84.332 E18.7695
G1 X188.054 Y84.67 E18.78136
G1 X188.09 Y84.965 E18.79125
G1 X188.1 Y85.33 E18.80339
G1 X188.1 Y144.284 E20.76421
G1 X188.091 Y145.011 E20.78839
G1 X188.047 Y145.365 E20.80026
G1 X187.925 Y145.701 E20.81214
G1 X187.732 Y146.001 E20.82401
G1 X187.476 Y146.252 E20.83593
G1 X187.172 Y146.439 E20.8478
G1 X186.834 Y146.554 E20.85968
G1 X186.536 Y146.59 E20.86966
G1 X186.17 Y146.6 E20.88184
G1 X44.186 Y146.6 E25.60425
G1 X43.488 Y146.591 E25.62747
G1 X43.134 Y146.546 E25.63933
G1 X42.798 Y146.424 E25.65122
G1 X42.498 Y146.231 E25.66309
G1 X42.248 Y145.976 E25.67497
G1 X42.061 Y145.671 E25.68686
G1 X41.946 Y145.333 E25.69874
G1 X41.91 Y145.034 E25.70876
G1 X41.9 Y144.658 E25.72127
G1 X41.9 Y85.652 E27.68381
G1 X41.909 Y84.987 E27.70593
G1 X41.954 Y84.633 E27.7178
G1 X42.076 Y84.297 E27.72969
G1 X42.27 Y83.997 E27.74157
G1 X42.525 Y83.747 E27.75345
G0 F6000 X42.909 Y83.97
G1 F1200 X43.194 Y83.851 E27.76372
G1 X43.475 Y83.809 E27.77317
G1 X43.796 Y83.8 E27.78385
G1 X185.81 Y83.8 E32.50726
G1 X186.508 Y83.81 E32.53048
G1 X186.814 Y83.854 E32.54076
G1 X187.099 Y83.975 E32.55106
G1 X187.343 Y84.165 E32.56134
G1 X187.531 Y84.411 E32.57164
G1 X187.649 Y84.696 E32.5819
G1 X187.691 Y84.976 E32.59132
G1 X187.7 Y85.296 E32.60197
G1 X187.7 Y144.279 E34.56375
G1 X187.691 Y145.006 E34.58793
G1 X187.647 Y145.312 E34.59821
G1 X187.527 Y145.597 E34.6085
G1 X187.338 Y145.841 E34.61876
G1 X187.092 Y146.029 E34.62906
G1 X186.807 Y146.149 E34.63935
G1 X186.525 Y146.191 E34.64883
G1 X186.204 Y146.2 E34.65951
G1 X44.192 Y146.2 E39.38285
G1 X43.494 Y146.191 E39.40606
G1 X43.187 Y146.147 E39.41638
G1 X42.903 Y146.027 E39.42663
G1 X42.658 Y145.837 E39.43695
G1 X42.47 Y145.592 E39.44722
G1 X42.351 Y145.306 E39.45752
G1 X42.309 Y145.023 E39.46704
G1 X42.3 Y144.69 E39.47812
G1 X42.3 Y85.658 E41.44153
G1 X42.309 Y84.993 E41.46365
G1 X42.353 Y84.687 E41.47393
G1 X42.474 Y84.402 E41.48423
G1 X42.663 Y84.158 E41.49449
G1 X42.909 Y83.97 E41.50479
G1 F1500 E35.00479
;MESH:top.stl
G0 F6000 X113.226 Y112.168
G0 X113.411 Y125.587
G0 X114.834 Y125.394
;TYPE:WALL-INNER
G1 F1500 E41.50479
G1 F1200 X114.738 Y125.394 E41.50799
G1 X114.43 Y125.394 E41.51823
G1 X114.195 Y125.394 E41.52605
G1 X113.91 Y125.395 E41.53552
G1 X114.194 Y125.295 E41.53713
G1 X114.43 Y125.28 E41.53924
G1 X114.737 Y125.329 E41.54161
G1 X114.834 Y125.394 E41.54238
G0 F6000 X115.541 Y125.793
;TYPE:WALL-OUTER
G1 F1200 X113.108 Y125.796 E41.6233
G1 X113.113 Y125.772 E41.62411
G1 X113.203 Y125.524 E41.63289
G1 X113.337 Y125.315 E41.64115
G1 X113.501 Y125.153 E41.64881
G1 X113.919 Y124.943 E41.66437
G1 X114.139 Y124.898 E41.67184
G1 X114.432 Y124.879 E41.68161
G1 X114.658 Y124.895 E41.68914
G1 X114.904 Y124.959 E41.6976
G1 X115.269 Y125.203 E41.7122
G1 X115.413 Y125.397 E41.72023
G1 X115.541 Y125.793 E41.73408
G0 F6000 X115.067 Y125.532
;TYPE:SKIN
G1 F1200 X114.633 Y125.098 E41.73843
G1 X113.702 Y125.298 E41.74519
G1 X113.423 Y125.586 E41.74803
G1 F1500 E35.24803
G0 F6000 X113.497 Y125.495
G0 X114.411 Y111.5
G0 X114.436 Y110.494
;TYPE:WALL-INNER
G1 F1500 E41.74803
G1 F1200 X114.417 Y110.446 E41.74975
G1 X114.39 Y110.154 E41.7595
G1 X114.392 Y110.126 E41.76044
G1 X114.423 Y109.741 E41.77328
G1 X114.483 Y109.466 E41.78265
G1 X114.559 Y109.231 E41.79086
G1 X114.674 Y108.968 E41.80041
G1 X114.779 Y108.777 E41.80766
G1 X115 Y108.477 E41.82005
G1 X115.159 Y108.35 E41.82682
G1 X115.304 Y108.285 E41.8321
G1 X115.339 Y108.27 E41.83337
G1 X115.601 Y108.259 E41.84209
G1 X115.673 Y108.256 E41.84449
G1 X115.681 Y108.294 E41.84578
G1 X115.728 Y108.51 E41.85313
G1 X115.728 Y108.582 E41.85553
G1 X115.729 Y108.667 E41.85836
G1 X115.71 Y108.954 E41.86792
G1 X115.682 Y109.153 E41.87461
G1 X115.622 Y109.412 E41.88345
G1 X115.488 Y109.774 E41.89629
G1 X115.384 Y109.96 E41.90337
G1 X115.166 Y110.244 E41.91528
G1 X114.955 Y110.421 E41.92444
G1 X114.72 Y110.503 E41.93272
G1 X114.465 Y110.494 E41.94121
G1 X114.436 Y110.494 E41.94217
G0 F6000 X114.196 Y110.838
G1 F1200 X114.105 Y110.742 E41.94657
G1 X114.025 Y110.544 E41.95367
G1 X114.02 Y110.484 E41.95568
G1 X113.989 Y110.164 E41.96637
G1 X113.995 Y109.969 E41.97286
G1 X114.029 Y109.67 E41.98287
G1 X114.096 Y109.363 E41.99332
G1 X114.183 Y109.092 E42.00279
G1 X114.31 Y108.8 E42.01338
G1 X114.442 Y108.56 E42.02249
G1 X114.709 Y108.198 E42.03745
G1 X114.951 Y108.004 E42.04776
G1 X115.227 Y107.882 E42.0578
G1 X115.284 Y107.875 E42.05971
G1 X115.602 Y107.83 E42.07039
G1 X115.894 Y107.896 E42.08035
G1 X115.982 Y107.968 E42.08413
G1 X116.1 Y108.231 E42.09372
G1 X116.128 Y108.486 E42.10225
G1 X116.129 Y108.677 E42.1086
G1 X116.108 Y108.994 E42.11917
G1 X116.075 Y109.231 E42.12713
G1 X116.009 Y109.516 E42.13686
G1 X115.931 Y109.76 E42.14538
G1 X115.845 Y109.955 E42.15247
G1 X115.72 Y110.18 E42.16103
G1 X115.457 Y110.522 E42.17538
G1 X115.211 Y110.727 E42.18603
G1 X115.18 Y110.753 E42.18737
G1 X115.082 Y110.808 E42.19111
G1 X114.788 Y110.901 E42.20137
G1 X114.448 Y110.917 E42.21269
G1 X114.196 Y110.838 E42.22147
G0 F6000 X113.963 Y111.173
G1 F1200 X113.907 Y111.113 E42.2242
G1 X113.817 Y111.018 E42.22855
G1 X113.762 Y110.961 E42.23119
G1 X113.655 Y110.693 E42.24079
G1 X113.633 Y110.64 E42.2427
G1 X113.628 Y110.583 E42.2446
G1 X113.588 Y110.174 E42.25827
G1 X113.595 Y109.948 E42.26579
G1 X113.635 Y109.597 E42.27754
G1 X113.708 Y109.265 E42.28884
G1 X113.81 Y108.945 E42.30001
G1 X113.951 Y108.621 E42.31177
G1 X114.095 Y108.359 E42.32171
G1 X114.262 Y108.112 E42.33163
G1 X114.429 Y107.91 E42.34034
G1 X114.74 Y107.66 E42.35362
G1 X115.114 Y107.494 E42.36723
G1 X115.586 Y107.428 E42.38308
G1 X115.78 Y107.44 E42.38954
G1 X116.089 Y107.538 E42.40032
G1 X116.296 Y107.709 E42.40925
G1 X116.333 Y107.779 E42.41189
G1 X116.456 Y108.007 E42.4205
G1 X116.495 Y108.161 E42.42579
G1 X116.528 Y108.459 E42.43576
G1 X116.529 Y108.687 E42.44334
G1 X116.506 Y109.036 E42.45498
G1 X116.468 Y109.307 E42.46408
G1 X116.395 Y109.624 E42.4749
G1 X116.307 Y109.897 E42.48444
G1 X116.202 Y110.136 E42.49312
G1 X116.065 Y110.383 E42.50251
G1 X115.917 Y110.6 E42.51125
G1 X115.739 Y110.807 E42.52033
G1 X115.405 Y111.086 E42.5348
G1 X115.243 Y111.176 E42.54097
G1 X114.857 Y111.299 E42.55444
G1 X114.428 Y111.319 E42.56873
G1 X114.241 Y111.291 E42.57502
G1 X113.963 Y111.173 E42.58506
G0 F6000 X113.729 Y111.508
;TYPE:WALL-OUTER
G1 F1200 X113.42 Y111.183 E42.59998
G1 X113.245 Y110.745 E42.61566
G1 X113.197 Y110.434 E42.62613
G1 X113.187 Y110.177 E42.63468
G1 X113.195 Y109.925 E42.64307
G1 X113.241 Y109.527 E42.6564
G1 X113.32 Y109.165 E42.66872
G1 X113.437 Y108.798 E42.68153
G1 X113.592 Y108.442 E42.69445
G1 X113.748 Y108.158 E42.70522
G1 X113.943 Y107.87 E42.71679
G1 X114.142 Y107.63 E42.72716
G1 X114.327 Y107.46 E42.73552
G1 X114.531 Y107.317 E42.7438
G1 X114.787 Y107.187 E42.75335
G1 X115.006 Y107.108 E42.7611
G1 X115.278 Y107.048 E42.77036
G1 X115.584 Y107.027 E42.78056
G1 X115.854 Y107.044 E42.78956
G1 X116.286 Y107.181 E42.80463
G1 X116.61 Y107.45 E42.81864
G1 X116.832 Y107.861 E42.83418
G1 X116.89 Y108.091 E42.84207
G1 X116.928 Y108.432 E42.85348
G1 X116.929 Y108.698 E42.86232
G1 X116.904 Y109.073 E42.87483
G1 X116.861 Y109.386 E42.88533
G1 X116.781 Y109.732 E42.89714
G1 X116.683 Y110.035 E42.90774
G1 X116.559 Y110.317 E42.91798
G1 X116.407 Y110.592 E42.92843
G1 X116.234 Y110.844 E42.9386
G1 X116.031 Y111.081 E42.94898
G1 X115.831 Y111.269 E42.95811
G1 X115.622 Y111.423 E42.96674
G1 X115.403 Y111.545 E42.97508
G1 X114.937 Y111.693 E42.99134
G1 X114.668 Y111.723 E43.00035
G1 X114.392 Y111.719 E43.00953
G1 X114.134 Y111.68 E43.01821
G1 X113.729 Y111.508 E43.03284
G0 F6000 X113.979 Y111.147
G0 X114.512 Y110.03
G0 X114.788 Y110.052
;TYPE:SKIN
G1 F1200 X114.86 Y109.569 E43.04908
G1 X115.021 Y109.146 E43.06414
G1 X115.106 Y108.992 E43.06999
G1 X115.284 Y108.749 E43.08
G1 X115.334 Y108.709 E43.08213
G1 X115.298 Y109.08 E43.09453
G1 X115.248 Y109.299 E43.102
G1 X115.134 Y109.605 E43.11286
G1 X115.054 Y109.748 E43.11831
G1 X114.883 Y109.972 E43.12769
G1 X114.788 Y110.052 E43.13182
G0 F6000 X114.512 Y110.03
G0 X114.826 Y109.047
G0 X115.249 Y108.497
G0 X115.61 Y108.479
G0 X115.56 Y108.489
;TYPE:SKIN
G1 F1200 X115.495 Y108.424 E43.13335
G0 F6000 X115.897 Y108.26
G1 F1200 X116.264 Y108.062 E43.13656
G0 F6000 X116.273 Y108.104
G1 F1500 E36.63656
G0 F6000 X116.709 Y108.443
G0 X117.756 Y108.403
G0 X124.838 Y107.623
G0 X129.314 Y107.131
G0 X133.487 Y108.3
G0 X133.854 Y108.108
;TYPE:WALL-INNER
G1 F1500 E43.13656
G1 F1200 X133.971 Y107.983 E43.14225
G1 X134.194 Y107.791 E43.15204
G1 X134.33 Y107.713 E43.15725
G1 X134.562 Y107.58 E43.16615
G1 X134.783 Y107.501 E43.17395
G1 X135.031 Y107.449 E43.18238
G1 X135.437 Y107.429 E43.1959
G1 X135.84 Y107.494 E43.20948
G1 X136.138 Y107.655 E43.22074
G1 X136.206 Y107.735 E43.22424
G1 X136.317 Y107.867 E43.22997
G1 X136.395 Y108.105 E43.2383
G1 X136.318 Y108.105
G1 X136.145 Y108.105 E43.24301
G1 X134.352 Y108.106 E43.30264
G1 X134.195 Y108.106 E43.30647
G1 X133.972 Y108.107 E43.31026
G1 X133.854 Y108.108 E43.31044
G0 F6000 X133.129 Y108.509
;TYPE:WALL-OUTER
G1 F1200 X133.252 Y108.272 E43.31932
G1 X133.526 Y107.874 E43.3354
G1 X133.695 Y107.693 E43.34363
G1 X133.949 Y107.474 E43.35479
G1 X134.139 Y107.348 E43.36237
G1 X134.401 Y107.214 E43.37216
G1 X134.674 Y107.116 E43.3818
G1 X134.979 Y107.052 E43.39217
G1 X135.45 Y107.028 E43.40786
G1 X135.739 Y107.057 E43.41752
G1 X135.989 Y107.119 E43.42608
G1 X136.395 Y107.339 E43.44144
G1 X136.672 Y107.667 E43.45572
G1 X136.81 Y108.09 E43.47052
G1 X136.815 Y108.505 E43.48432
G1 X133.129 Y108.509 E43.60692
G0 F6000 X133.481 Y108.308
;TYPE:SKIN
G1 F1200 X133.669 Y108.213 E43.61042
G1 X134.71 Y107.84 E43.62878
G1 X135.785 Y107.784 E43.64665
G0 F6000 X135.637 Y107.65
G1 F1500 E37.14665
G0 F6000 X136.591 Y108.125
G0 X141.536 Y108.3
G0 X141.921 Y108.108
;TYPE:WALL-INNER
G1 F1500 E43.64665
G1 F1200 X142.033 Y107.975 E43.65243
G1 X142.236 Y107.8 E43.66135
G1 X142.385 Y107.714 E43.66707
G1 X142.619 Y107.579 E43.67605
G1 X142.837 Y107.501 E43.68375
G1 X143.085 Y107.449 E43.69218
G1 X143.49 Y107.429 E43.70567
G1 X143.895 Y107.494 E43.71931
G1 X144.193 Y107.656 E43.73059
G1 X144.259 Y107.734 E43.73399
G1 X144.369 Y107.864 E43.73966
G1 X144.447 Y108.105 E43.74808
G1 X144.37 Y108.105
G1 X144.2 Y108.105 E43.75272
G1 X142.41 Y108.106 E43.81226
G1 X142.237 Y108.106 E43.81661
G1 X142.034 Y108.107 E43.82005
G1 X141.921 Y108.108 E43.82019
G0 F6000 X141.183 Y108.509
;TYPE:WALL-OUTER
G1 F1200 X141.297 Y108.286 E43.82852
G1 X141.442 Y108.057 E43.83753
G1 X141.749 Y107.692 E43.85339
G1 X141.996 Y107.479 E43.86424
G1 X142.199 Y107.344 E43.87235
G1 X142.455 Y107.214 E43.8819
G1 X142.728 Y107.116 E43.89155
G1 X143.033 Y107.052 E43.90191
G1 X143.503 Y107.028 E43.91757
G1 X143.792 Y107.057 E43.92723
G1 X144.043 Y107.119 E43.93583
G1 X144.449 Y107.339 E43.95118
G1 X144.726 Y107.666 E43.96544
G1 X144.863 Y108.089 E43.98023
G1 X144.868 Y108.505 E43.99406
G1 X141.183 Y108.509 E44.11663
G0 F6000 X141.636 Y108.261
;TYPE:SKIN
G1 F1200 X141.707 Y108.048 E44.12008
G1 X143.142 Y107.787 E44.14254
G1 X144.017 Y107.813 E44.15602
G0 F6000 X144.203 Y107.997
G1 F1500 E37.65602
G0 F6000 X141.536 Y108.3
G0 X141.092 Y126.97
G0 X140.856 Y127.157
;TYPE:WALL-INNER
G1 F1500 E44.15602
G1 F1200 X140.847 Y127.19 E44.15716
G1 X140.826 Y127.266 E44.15978
G1 X140.805 Y127.34 E44.16234
G1 X140.776 Y127.383 E44.16406
G1 X140.771 Y127.39 E44.16435
G1 X140.61 Y127.625 E44.17382
G1 X140.528 Y127.693 E44.17737
G1 X140.209 Y127.819 E44.18877
G1 X140.046 Y127.833 E44.19422
G1 X139.778 Y127.785 E44.20327
G1 X139.727 Y127.776 E44.20499
G1 X139.646 Y127.711 E44.20845
G1 X139.621 Y127.691 E44.20951
G1 X139.578 Y127.518 E44.21544
G1 X139.588 Y127.468 E44.21714
G1 X139.616 Y127.342 E44.22143
G1 X139.643 Y127.324 E44.22251
G1 X139.721 Y127.27 E44.22566
G1 X139.934 Y127.213 E44.233
G1 X140.21 Y127.177 E44.24226
G1 X140.444 Y127.163 E44.25005
G1 X140.453 Y127.163 E44.25032
G1 X140.726 Y127.157 E44.25758
G1 X140.805 Y127.157 E44.25865
G1 X140.856 Y127.157 E44.25893
G0 F6000 X141.319 Y126.757
;TYPE:WALL-OUTER
G1 F1200 X141.319 Y126.804 E44.26049
G1 X141.298 Y127.06 E44.26904
G1 X141.172 Y127.511 E44.28461
G1 X140.909 Y127.896 E44.30012
G1 X140.734 Y128.042 E44.3077
G1 X140.3 Y128.213 E44.32321
G1 X140.029 Y128.236 E44.33226
G1 X139.588 Y128.158 E44.34716
G1 X139.417 Y128.057 E44.35376
G1 X139.285 Y127.917 E44.36016
G1 X139.205 Y127.744 E44.3665
G1 X139.175 Y127.522 E44.37395
G1 X139.197 Y127.312 E44.38097
G1 X139.27 Y127.128 E44.38756
G1 X139.391 Y126.995 E44.39354
G1 X139.57 Y126.897 E44.40033
G1 X139.86 Y126.819 E44.41031
G1 X140.163 Y126.779 E44.42048
G1 X140.444 Y126.763 E44.42984
G1 X140.717 Y126.757 E44.43892
G1 X141.319 Y126.757 E44.45895
G0 F6000 X141.033 Y127.024
G0 X140.495 Y127.484
G0 X140.425 Y127.414
;TYPE:SKIN
G1 F1200 X140.206 Y127.478 E44.46603
G1 X139.978 Y127.532 E44.47331
G0 F6000 X140.095 Y127.627
G1 F1500 E37.97331
G0 F6000 X141.092 Y126.97
G0 X141.092 Y145.665
G0 X165.366 Y111.727
G0 X166.225 Y111.063
G0 X167.052 Y110.493
;TYPE:WALL-INNER
G1 F1500 E44.47331
G1 F1200 X167.035 Y110.449 E44.47488
G1 X167.03 Y110.393 E44.47675
G1 X167.007 Y110.162 E44.48447
G1 X167.013 Y109.99 E44.4902
G1 X167.041 Y109.741 E44.49853
G1 X167.099 Y109.474 E44.50762
G1 X167.181 Y109.217 E44.51659
G1 X167.287 Y108.971 E44.5255
G1 X167.526 Y108.586 E44.54057
G1 X167.78 Y108.349 E44.55213
G1 X167.921 Y108.285 E44.55728
G1 X167.955 Y108.27 E44.55851
G1 X168.153 Y108.242 E44.56516
G1 X168.203 Y108.236 E44.56684
G1 X168.291 Y108.255 E44.56983
G1 X168.299 Y108.292 E44.57109
G1 X168.346 Y108.51 E44.57851
G1 X168.346 Y108.561 E44.58021
G1 X168.347 Y108.665 E44.58366
G1 X168.328 Y108.945 E44.593
