;FLAVOR:Marlin
;TIME:26717
;Filament used: 19.659m
;Layer height: 0.2
;MINX:41.5
;MINY:83
;MINZ:0.2
;MAXX:188.5
;MAXY:147
;MAXZ:28
;Generated with Cura_SteamEngine 4.8.0
M140 S60
M105
M190 S60
M104 S200
M105
M109 S200
M82 ;absolute extrusion mode
; Ender 3 Custom Start G-code
G92 E0 ; Reset Extruder
G28 ; Home all axes
G1 Z2.0 F3000 ; Move Z Axis up little to prevent scratching of Heat Bed
G1 X0.1 Y20 Z0.2 F5000.0 ; Move to start position
G1 X0.1 Y200.0 Z0.2 F1500.0 E10 ; Draw the first line
G1 X0.4 Y200.0 Z0.2 F5000.0 ; Move to side a little
G1 X0.4 Y20 Z0.2 F1500.0 E20 ; Draw the second line
G92 E0 ; Reset Extruder
G1 Z2.0 F3000 ; Move Z Axis up little to prevent scratching of Heat Bed
G1 X5 Y20 Z0.2 F5000.0 ; Move over to prevent blob squish
G92 E0
G92 E0
G1 F1500 E-6.5
;LAYER_COUNT:140
;LAYER:0
M107
G0 F6000 X42.452 Y83.311 Z0.2
;TYPE:SKIRT
G1 F1500 E0
G1 F1200 X42.811 Y83.135 E0.0133
G1 X43.197 Y83.033 E0.02658
G1 X43.453 Y83.01 E0.03513
G1 X43.83 Y83 E0.04767
G1 X185.822 Y83 E4.77034
G1 X186.52 Y83.01 E4.79356
G1 X186.917 Y83.056 E4.80685
G1 X187.296 Y83.179 E4.82011
G1 X187.644 Y83.376 E4.83341
G1 X187.946 Y83.638 E4.8467
G1 X188.19 Y83.954 E4.85998
G1 X188.366 Y84.313 E4.87328
G1 X188.467 Y84.699 E4.88655
G1 X188.49 Y84.954 E4.89507
G1 X188.5 Y85.33 E4.90758
G1 X188.5 Y144.289 E6.86856
G1 X188.491 Y145.016 E6.89274
G1 X188.446 Y145.413 E6.90603
G1 X188.323 Y145.793 E6.91932
G1 X188.127 Y146.141 E6.9326
G1 X187.866 Y146.443 E6.94588
G1 X187.55 Y146.688 E6.95918
G1 X187.192 Y146.864 E6.97244
G1 X186.805 Y146.966 E6.98576
G1 X186.547 Y146.99 E6.99437
G1 X186.17 Y147 E7.00692
G1 X44.181 Y147 E11.72949
G1 X43.483 Y146.991 E11.75271
G1 X43.086 Y146.946 E11.766
G1 X42.706 Y146.823 E11.77928
G1 X42.358 Y146.627 E11.79257
G1 X42.056 Y146.365 E11.80586
G1 X41.812 Y146.049 E11.81914
G1 X41.635 Y145.691 E11.83243
G1 X41.534 Y145.304 E11.84573
G1 X41.51 Y145.045 E11.85438
G1 X41.5 Y144.658 E11.86726
G1 X41.5 Y85.647 E13.82997
G1 X41.509 Y84.982 E13.85209
G1 X41.554 Y84.585 E13.86538
G1 X41.678 Y84.205 E13.87867
G1 X41.874 Y83.857 E13.89196
G1 X42.136 Y83.555 E13.90525
G1 X42.452 Y83.311 E13.91853
G0 F6000 X42.525 Y83.747
G1 F1200 X42.829 Y83.56 E13.9304
G1 X43.168 Y83.446 E13.9423
G1 X43.464 Y83.41 E13.95222
G1 X43.83 Y83.4 E13.9644
G1 X185.816 Y83.4 E18.68687
G1 X186.514 Y83.41 E18.71009
G1 X186.868 Y83.455 E18.72196
G1 X187.204 Y83.578 E18.73386
G1 X187.504 Y83.771 E18.74572
G1 X187.753 Y84.027 E18.7576
G1 X187.94 Y84.332 E18.7695
G1 X188.054 Y84.67 E18.78136
G1 X188.09 Y84.965 E18.79125
G1 X188.1 Y85.33 E18.80339
G1 X188.1 Y144.284 E20.76421
G1 X188.091 Y145.011 E20.78839
G1 X188.047 Y145.365 E20.80026
G1 X187.925 Y145.701 E20.81214
G1 X187.732 Y146.001 E20.82401
G1 X187.476 Y146.252 E20.83593
G1 X187.172 Y146.439 E20.8478
G1 X186.834 Y146.554 E20.85968
G1 X186.536 Y146.59 E20.86966
G1 X186.17 Y146.6 E20.88184
G1 X44.186 Y146.6 E25.60425
G1 X43.488 Y146.591 E25.62747
G1 X43.134 Y146.546 E25.63933
G1 X42.798 Y146.424 E25.65122
G1 X42.498 Y146.231 E25.66309
G1 X42.248 Y145.976 E25.67497
G1 X42.061 Y145.671 E25.68686
G1 X41.946 Y145.333 E25.69874
G1 X41.91 Y145.034 E25.70876
G1 X41.9 Y144.658 E25.72127
G1 X41.9 Y85.652 E27.68381
G1 X41.909 Y84.987 E27.70593
G1 X41.954 Y84.633 E27.7178
G1 X42.076 Y84.297 E27.72969
G1 X42.27 Y83.997 E27.74157
G1 X42.525 Y83.747 E27.75345
G0 F6000 X42.909 Y83.97
G1 F1200 X43.194 Y83.851 E27.76372
G1 X43.475 Y83.809 E27.77317
G1 X43.796 Y83.8 E27.78385
G1 X185.81 Y83.8 E32.50726
G1 X186.508 Y83.81 E32.53048
G1 X186.814 Y83.854 E32.54076
G1 X187.099 Y83.975 E32.55106
G1 X187.343 Y84.165 E32.56134
G1 X187.531 Y84.411 E32.57164
G1 X187.649 Y84.696 E32.5819
G1 X187.691 Y84.976 E32.59132
G1 X187.7 Y85.296 E32.60197
G1 X187.7 Y144.279 E34.56375
G1 X187.691 Y145.006 E34.58793
G1 X187.647 Y145.312 E34.59821
G1 X187.527 Y145.597 E34.6085
G1 X187.338 Y145.841 E34.61876
G1 X187.092 Y146.029 E34.62906
G1 X186.807 Y146.149 E34.63935
G1 X186.525 Y146.191 E34.64883
G1 X186.204 Y146.2 E34.65951
G1 X44.192 Y146.2 E39.38285
G1 X43.494 Y146.191 E39.40606
G1 X43.187 Y146.147 E39.41638
G1 X42.903 Y146.027 E39.42663
G1 X42.658 Y145.837 E39.43695
G1 X42.47 Y145.592 E39.44722
G1 X42.351 Y145.306 E39.45752
G1 X42.309 Y145.023 E39.46704
G1 X42.3 Y144.69 E39.47812
G1 X42.3 Y85.658 E41.44153
G1 X42.309 Y84.993 E41.46365
G1 X42.353 Y84.687 E41.47393
G1 X42.474 Y84.402 E41.48423
G1 X42.663 Y84.158 E41.49449
G1 X42.909 Y83.97 E41.50479
G1 F1500 E35.00479
;MESH:bottom.stl
G0 F6000 X175.948 Y135.181
G0 X173.77 Y135.814
G0 X175.532 Y137.48
;TYPE:WALL-INNER
G1 F1500 E41.50479
G1 F1200 X176.107 Y137.621 E41.52448
G1 X176.148 Y137.632 E41.5259
G1 X176.709 Y137.651 E41.54456
G1 X177.327 Y137.527 E41.56553
G1 X177.846 Y137.294 E41.58445
G1 X178.341 Y136.918 E41.60513
G1 X178.705 Y136.485 E41.62394
G1 X178.992 Y135.928 E41.64478
G1 X179.122 Y135.41 E41.66254
G1 X179.153 Y134.986 E41.67668
G1 X179.104 Y134.458 E41.69432
G1 X178.897 Y133.846 E41.71581
G1 X178.551 Y133.31 E41.73703
G1 X178.144 Y132.91 E41.75601
G1 X177.609 Y132.584 E41.77685
G1 X177.077 Y132.405 E41.79551
G1 X176.434 Y132.339 E41.81701
G1 X175.779 Y132.439 E41.83905
G1 X175.188 Y132.687 E41.86037
G1 X174.728 Y133.017 E41.8792
G1 X174.316 Y133.483 E41.89989
G1 X174.042 Y133.985 E41.91891
G1 X173.875 Y134.586 E41.93965
G1 X173.845 Y135.149 E41.95841
G1 X173.954 Y135.76 E41.97905
G1 X174.173 Y136.288 E41.99806
G1 X174.539 Y136.793 E42.0188
G1 X174.958 Y137.167 E42.03749
G1 X175.532 Y137.48 E42.05923
G0 F6000 X175.678 Y137.104
G1 F1200 X176.203 Y137.234 E42.07722
G1 X176.676 Y137.25 E42.09296
G1 X177.204 Y137.144 E42.11087
G1 X177.64 Y136.948 E42.12677
G1 X178.064 Y136.626 E42.14448
G1 X178.37 Y136.262 E42.1603
G1 X178.615 Y135.786 E42.1781
G1 X178.726 Y135.346 E42.19319
G1 X178.752 Y134.99 E42.20507
G1 X178.71 Y134.542 E42.22003
G1 X178.534 Y134.021 E42.23832
G1 X178.239 Y133.564 E42.25641
G1 X177.897 Y133.228 E42.27236
G1 X177.439 Y132.949 E42.2902
G1 X176.992 Y132.798 E42.30589
G1 X176.444 Y132.742 E42.32421
G1 X175.888 Y132.827 E42.34292
G1 X175.385 Y133.038 E42.36106
G1 X174.998 Y133.316 E42.37691
G1 X174.645 Y133.714 E42.3946
G1 X174.415 Y134.136 E42.41059
G1 X174.272 Y134.651 E42.42837
G1 X174.247 Y135.124 E42.44412
G1 X174.34 Y135.647 E42.46179
G1 X174.524 Y136.091 E42.47777
G1 X174.838 Y136.523 E42.49554
G1 X175.19 Y136.838 E42.51125
G1 X175.678 Y137.104 E42.52973
G0 F6000 X175.824 Y136.728
G1 F1200 X176.259 Y136.836 E42.54464
G1 X176.643 Y136.849 E42.55742
G1 X177.081 Y136.761 E42.57228
G1 X177.434 Y136.602 E42.58516
G1 X177.787 Y136.334 E42.5999
G1 X178.035 Y136.039 E42.61271
G1 X178.238 Y135.644 E42.62749
G1 X178.33 Y135.282 E42.63991
G1 X178.351 Y134.994 E42.64951
G1 X178.316 Y134.626 E42.66181
G1 X178.171 Y134.196 E42.6769
G1 X177.927 Y133.818 E42.69187
G1 X177.65 Y133.546 E42.70478
G1 X177.269 Y133.314 E42.71961
G1 X176.906 Y133.191 E42.73236
G1 X176.454 Y133.145 E42.74747
G1 X175.997 Y133.215 E42.76285
G1 X175.582 Y133.389 E42.77782
G1 X175.268 Y133.615 E42.79068
G1 X174.974 Y133.946 E42.80541
G1 X174.788 Y134.287 E42.81833
G1 X174.669 Y134.716 E42.83314
G1 X174.649 Y135.099 E42.84589
G1 X174.726 Y135.534 E42.86059
G1 X174.875 Y135.894 E42.87354
G1 X175.136 Y136.253 E42.88831
G1 X175.422 Y136.509 E42.90107
G1 X175.824 Y136.728 E42.9163
G0 F6000 X175.97 Y136.352
;TYPE:WALL-OUTER
G1 F1200 X176.315 Y136.438 E42.92812
G1 X176.61 Y136.448 E42.93794
G1 X176.958 Y136.378 E42.94975
G1 X177.228 Y136.256 E42.9596
G1 X177.51 Y136.042 E42.97138
G1 X177.7 Y135.816 E42.9812
G1 X177.862 Y135.501 E42.99298
G1 X177.934 Y135.218 E43.00269
G1 X177.95 Y134.999 E43.00999
G1 X177.922 Y134.71 E43.01965
G1 X177.808 Y134.371 E43.03155
G1 X177.615 Y134.072 E43.04338
G1 X177.403 Y133.864 E43.05326
G1 X177.099 Y133.679 E43.0651
G1 X176.82 Y133.584 E43.0749
G1 X176.464 Y133.548 E43.0868
G1 X176.106 Y133.603 E43.09885
G1 X175.779 Y133.74 E43.11064
G1 X175.538 Y133.914 E43.12053
G1 X175.303 Y134.178 E43.13228
G1 X175.161 Y134.438 E43.14214
G1 X175.066 Y134.78 E43.15394
G1 X175.051 Y135.074 E43.16373
G1 X175.112 Y135.422 E43.17548
G1 X175.226 Y135.697 E43.18539
G1 X175.434 Y135.983 E43.19715
G1 X175.654 Y136.18 E43.20697
G1 X175.97 Y136.352 E43.21894
G0 F6000 X175.811 Y136.762
G1 F1500 E36.71894
G0 F6000 X175.016 Y135.814
G0 X174.881 Y135.489
G0 X174.811 Y135.088
G0 X174.828 Y134.742
G0 X174.937 Y134.347
G0 X176.429 Y132.146
G0 X176.487 Y134.419
G0 X176.431 Y95.577
G0 X176.121 Y97.822
G0 X175.532 Y97.48
;TYPE:WALL-INNER
G1 F1500 E43.21894
G1 F1200 X176.107 Y97.621 E43.23863
G1 X176.148 Y97.632 E43.24004
G1 X176.709 Y97.651 E43.25871
G1 X177.327 Y97.527 E43.27967
G1 X177.846 Y97.294 E43.29859
G1 X178.341 Y96.918 E43.31927
G1 X178.705 Y96.485 E43.33808
G1 X178.992 Y95.928 E43.35892
G1 X179.122 Y95.41 E43.37669
G1 X179.153 Y94.986 E43.39083
G1 X179.104 Y94.458 E43.40846
G1 X178.897 Y93.846 E43.42995
G1 X178.551 Y93.31 E43.45117
G1 X178.144 Y92.91 E43.47015
G1 X177.609 Y92.584 E43.49099
G1 X177.077 Y92.405 E43.50966
G1 X176.434 Y92.339 E43.53116
G1 X175.779 Y92.439 E43.55319
G1 X175.188 Y92.687 E43.57451
G1 X174.728 Y93.017 E43.59334
G1 X174.316 Y93.483 E43.61403
G1 X174.042 Y93.985 E43.63305
G1 X173.875 Y94.586 E43.6538
G1 X173.845 Y95.149 E43.67255
G1 X173.954 Y95.76 E43.69319
G1 X174.173 Y96.288 E43.71221
G1 X174.539 Y96.793 E43.73295
G1 X174.958 Y97.167 E43.75163
G1 X175.532 Y97.48 E43.77337
G0 F6000 X175.678 Y97.104
G1 F1200 X176.203 Y97.234 E43.79136
G1 X176.676 Y97.25 E43.8071
G1 X177.204 Y97.144 E43.82502
G1 X177.64 Y96.948 E43.84092
G1 X178.064 Y96.626 E43.85862
G1 X178.37 Y96.262 E43.87444
G1 X178.615 Y95.786 E43.89225
G1 X178.726 Y95.346 E43.90734
G1 X178.752 Y94.99 E43.91921
G1 X178.71 Y94.542 E43.93418
G1 X178.534 Y94.021 E43.95247
G1 X178.239 Y93.564 E43.97056
G1 X177.897 Y93.228 E43.9865
G1 X177.439 Y92.949 E44.00434
G1 X176.992 Y92.798 E44.02003
G1 X176.444 Y92.742 E44.03836
G1 X175.888 Y92.827 E44.05706
G1 X175.385 Y93.038 E44.07521
G1 X174.998 Y93.316 E44.09105
G1 X174.645 Y93.714 E44.10875
G1 X174.415 Y94.136 E44.12473
G1 X174.272 Y94.651 E44.14251
G1 X174.247 Y95.124 E44.15826
G1 X174.34 Y95.647 E44.17593
G1 X174.524 Y96.091 E44.19192
G1 X174.838 Y96.523 E44.20968
G1 X175.19 Y96.838 E44.22539
G1 X175.678 Y97.104 E44.24388
G0 F6000 X175.824 Y96.728
G1 F1200 X176.259 Y96.836 E44.25878
G1 X176.643 Y96.849 E44.27156
G1 X177.081 Y96.761 E44.28642
G1 X177.434 Y96.602 E44.2993
G1 X177.787 Y96.334 E44.31404
G1 X178.035 Y96.039 E44.32686
G1 X178.238 Y95.644 E44.34163
G1 X178.33 Y95.282 E44.35405
G1 X178.351 Y94.994 E44.36366
G1 X178.316 Y94.626 E44.37595
G1 X178.171 Y94.196 E44.39105
G1 X177.927 Y93.818 E44.40601
G1 X177.65 Y93.546 E44.41892
G1 X177.269 Y93.314 E44.43376
G1 X176.906 Y93.191 E44.44651
G1 X176.454 Y93.145 E44.46162
G1 X175.997 Y93.215 E44.47699
G1 X175.582 Y93.389 E44.49196
G1 X175.268 Y93.615 E44.50483
G1 X174.974 Y93.946 E44.51955
G1 X174.788 Y94.287 E44.53247
G1 X174.669 Y94.716 E44.54728
G1 X174.649 Y95.099 E44.56004
G1 X174.726 Y95.534 E44.57473
G1 X174.875 Y95.894 E44.58769
G1 X175.136 Y96.253 E44.60245
G1 X175.422 Y96.509 E44.61522
G1 X175.824 Y96.728 E44.63044
G0 F6000 X175.97 Y96.352
;TYPE:WALL-OUTER
G1 F1200 X176.315 Y96.438 E44.64227
G1 X176.61 Y96.448 E44.65209
G1 X176.958 Y96.378 E44.66389
G1 X177.228 Y96.256 E44.67375
G1 X177.51 Y96.042 E44.68552
G1 X177.7 Y95.816 E44.69534
G1 X177.862 Y95.501 E44.70712
G1 X177.934 Y95.218 E44.71684
G1 X177.95 Y94.999 E44.72414
G1 X177.922 Y94.71 E44.7338
G1 X177.808 Y94.371 E44.74569
G1 X177.615 Y94.072 E44.75753
G1 X177.403 Y93.864 E44.76741
G1 X177.099 Y93.679 E44.77924
G1 X176.82 Y93.584 E44.78905
G1 X176.464 Y93.548 E44.80095
G1 X176.106 Y93.603 E44.81299
G1 X175.779 Y93.74 E44.82479
G1 X175.538 Y93.914 E44.83467
G1 X175.303 Y94.178 E44.84643
G1 X175.161 Y94.438 E44.85628
G1 X175.066 Y94.78 E44.86809
G1 X175.051 Y95.074 E44.87788
G1 X175.112 Y95.422 E44.88963
G1 X175.226 Y95.697 E44.89953
G1 X175.434 Y95.983 E44.91129
G1 X175.654 Y96.18 E44.92111
G1 X175.97 Y96.352 E44.93308
G0 F6000 X175.811 Y96.762
G1 F1500 E38.43308
G0 F6000 X173.77 Y95.814
G0 X175.948 Y95.181
G0 X53.974 Y95.337
G0 X55.865 Y96.591
G0 X54.327 Y97.527
;TYPE:WALL-INNER
G1 F1500 E44.93308
G1 F1200 X54.846 Y97.294 E44.952
G1 X55.341 Y96.918 E44.97268
G1 X55.705 Y96.485 E44.99149
G1 X55.992 Y95.928 E45.01233
G1 X56.122 Y95.41 E45.03009
G1 X56.153 Y94.986 E45.04423
G1 X56.104 Y94.458 E45.06187
G1 X55.897 Y93.846 E45.08336
G1 X55.551 Y93.31 E45.10458
G1 X55.144 Y92.91 E45.12356
G1 X54.609 Y92.584 E45.1444
G1 X54.077 Y92.405 E45.16307
G1 X53.434 Y92.339 E45.18456
G1 X52.779 Y92.439 E45.2066
G1 X52.188 Y92.687 E45.22792
G1 X51.728 Y93.017 E45.24675
G1 X51.316 Y93.483 E45.26744
G1 X51.042 Y93.985 E45.28646
G1 X50.875 Y94.586 E45.30721
G1 X50.845 Y95.149 E45.32596
G1 X50.954 Y95.76 E45.3466
G1 X51.173 Y96.288 E45.36561
G1 X51.539 Y96.793 E45.38636
G1 X51.958 Y97.167 E45.40504
G1 X52.532 Y97.48 E45.42678
G1 X53.107 Y97.621 E45.44647
G1 X53.148 Y97.632 E45.44788
G1 X53.709 Y97.651 E45.46655
G1 X54.327 Y97.527 E45.48752
G0 F6000 X54.204 Y97.144
G1 F1200 X54.64 Y96.948 E45.50342
G1 X55.064 Y96.626 E45.52113
G1 X55.37 Y96.262 E45.53694
G1 X55.615 Y95.786 E45.55475
G1 X55.726 Y95.346 E45.56984
G1 X55.752 Y94.99 E45.58171
G1 X55.71 Y94.542 E45.59668
G1 X55.534 Y94.021 E45.61497
G1 X55.239 Y93.564 E45.63306
G1 X54.897 Y93.228 E45.64901
G1 X54.439 Y92.949 E45.66684
G1 X53.992 Y92.798 E45.68254
G1 X53.444 Y92.742 E45.70086
G1 X52.888 Y92.827 E45.71957
G1 X52.385 Y93.038 E45.73771
G1 X51.998 Y93.316 E45.75356
G1 X51.645 Y93.714 E45.77125
G1 X51.415 Y94.136 E45.78724
G1 X51.272 Y94.651 E45.80501
G1 X51.247 Y95.124 E45.82077
G1 X51.34 Y95.647 E45.83843
G1 X51.524 Y96.091 E45.85442
G1 X51.838 Y96.523 E45.87218
G1 X52.19 Y96.838 E45.88789
G1 X52.678 Y97.104 E45.90638
G1 X53.203 Y97.234 E45.92437
G1 X53.676 Y97.25 E45.94011
G1 X54.204 Y97.144 E45.95802
G0 F6000 X54.081 Y96.761
G1 F1200 X54.434 Y96.602 E45.9709
G1 X54.787 Y96.334 E45.98564
G1 X55.035 Y96.039 E45.99846
G1 X55.238 Y95.644 E46.01323
G1 X55.33 Y95.282 E46.02565
G1 X55.351 Y94.994 E46.03526
G1 X55.316 Y94.626 E46.04755
G1 X55.171 Y94.196 E46.06264
G1 X54.927 Y93.818 E46.07761
G1 X54.65 Y93.546 E46.09052
G1 X54.269 Y93.314 E46.10536
G1 X53.906 Y93.191 E46.1181
G1 X53.454 Y93.145 E46.13322
G1 X52.997 Y93.215 E46.14859
G1 X52.582 Y93.389 E46.16356
G1 X52.268 Y93.615 E46.17643
G1 X51.974 Y93.946 E46.19115
G1 X51.788 Y94.287 E46.20407
G1 X51.669 Y94.716 E46.21888
G1 X51.649 Y95.099 E46.23163
G1 X51.726 Y95.534 E46.24633
G1 X51.875 Y95.894 E46.25929
G1 X52.136 Y96.253 E46.27405
G1 X52.422 Y96.509 E46.28682
G1 X52.824 Y96.728 E46.30204
G1 X53.259 Y96.836 E46.31695
G1 X53.643 Y96.849 E46.32973
G1 X54.081 Y96.761 E46.34459
G0 F6000 X53.958 Y96.378
;TYPE:WALL-OUTER
G1 F1200 X54.228 Y96.256 E46.35444
G1 X54.51 Y96.042 E46.36622
G1 X54.7 Y95.816 E46.37604
G1 X54.862 Y95.501 E46.38782
G1 X54.934 Y95.218 E46.39753
G1 X54.95 Y94.999 E46.40483
G1 X54.922 Y94.71 E46.41449
G1 X54.808 Y94.371 E46.42639
G1 X54.615 Y94.072 E46.43822
G1 X54.403 Y93.864 E46.4481
G1 X54.099 Y93.679 E46.45994
G1 X53.82 Y93.584 E46.46974
G1 X53.464 Y93.548 E46.48164
G1 X53.106 Y93.603 E46.49369
G1 X52.779 Y93.74 E46.50548
G1 X52.538 Y93.914 E46.51537
G1 X52.303 Y94.178 E46.52712
G1 X52.161 Y94.438 E46.53697
G1 X52.066 Y94.78 E46.54878
G1 X52.051 Y95.074 E46.55857
G1 X52.112 Y95.422 E46.57032
G1 X52.226 Y95.697 E46.58022
G1 X52.434 Y95.983 E46.59199
G1 X52.654 Y96.18 E46.60181
G1 X52.97 Y96.352 E46.61377
G1 X53.315 Y96.438 E46.6256
G1 X53.61 Y96.448 E46.63542
G1 X53.958 Y96.378 E46.64722
G0 F6000 X54.092 Y96.796
G1 F1500 E40.14722
G0 F6000 X53.725 Y97.843
G0 X53.539 Y95.581
G0 X53.637 Y134.435
G0 X54.118 Y132.217
G0 X55.158 Y134.66
G0 X55.167 Y135.142
G0 X54.846 Y137.294
;TYPE:WALL-INNER
G1 F1500 E46.64722
G1 F1200 X55.341 Y136.918 E46.6679
G1 X55.705 Y136.485 E46.68671
G1 X55.992 Y135.928 E46.70755
G1 X56.122 Y135.41 E46.72532
G1 X56.153 Y134.986 E46.73946
G1 X56.104 Y134.458 E46.75709
G1 X55.897 Y133.846 E46.77858
G1 X55.551 Y133.31 E46.7998
G1 X55.144 Y132.91 E46.81878
G1 X54.609 Y132.584 E46.83962
