;FLAVOR:Marlin
;TIME:625
;Filament used: 0.337804m
;Layer height: 0.2
;MINX:52.992
;MINY:103
;MINZ:0.2
;MAXX:177.008
;MAXY:127
;MAXZ:0.4
;Generated with Cura_SteamEngine 4.8.0
M140 S60
M105
M190 S60
M104 S200
M105
M109 S200
M82 ;absolute extrusion mode
; Ender 3 Custom Start G-code
G92 E0 ; Reset Extruder
G28 ; Home all axes
G1 Z2.0 F3000 ; Move Z Axis up little to prevent scratching of Heat Bed
G1 X0.1 Y20 Z0.2 F5000.0 ; Move to start position
G1 X0.1 Y200.0 Z0.2 F1500.0 E10 ; Draw the first line
G1 X0.4 Y200.0 Z0.2 F5000.0 ; Move to side a little
G1 X0.4 Y20 Z0.2 F1500.0 E20 ; Draw the second line
G92 E0 ; Reset Extruder
G1 Z2.0 F3000 ; Move Z Axis up little to prevent scratching of Heat Bed
G1 X5 Y20 Z0.2 F5000.0 ; Move over to prevent blob squish
G92 E0
G92 E0
G1 F1500 E-6.5
;LAYER_COUNT:2
;LAYER:0
M107
G0 F6000 X53.944 Y103.311 Z0.2
;TYPE:SKIRT
G1 F1500 E0
G1 F1200 X54.303 Y103.135 E0.0133
G1 X54.689 Y103.033 E0.02658
G1 X54.945 Y103.01 E0.03513
G1 X55.322 Y103 E0.04767
G1 X174.33 Y103 E4.00589
G1 X175.028 Y103.01 E4.02911
G1 X175.425 Y103.056 E4.0424
G1 X175.804 Y103.179 E4.05566
G1 X176.152 Y103.376 E4.06896
G1 X176.454 Y103.638 E4.08225
G1 X176.698 Y103.954 E4.09553
G1 X176.874 Y104.313 E4.10883
G1 X176.975 Y104.699 E4.1221
G1 X176.998 Y104.954 E4.13062
G1 X177.008 Y105.33 E4.14313
G1 X177.008 Y124.289 E4.77371
G1 X176.999 Y125.016 E4.79789
G1 X176.954 Y125.413 E4.81118
G1 X176.831 Y125.793 E4.82446
G1 X176.635 Y126.141 E4.83775
G1 X176.374 Y126.443 E4.85102
G1 X176.058 Y126.688 E4.86432
G1 X175.7 Y126.864 E4.87759
G1 X175.313 Y126.966 E4.8909
G1 X175.055 Y126.99 E4.89952
G1 X174.678 Y127 E4.91206
G1 X55.673 Y127 E8.87018
G1 X54.975 Y126.991 E8.8934
G1 X54.578 Y126.946 E8.90669
G1 X54.198 Y126.823 E8.91997
G1 X53.85 Y126.627 E8.93326
G1 X53.548 Y126.365 E8.94656
G1 X53.304 Y126.049 E8.95983
G1 X53.127 Y125.691 E8.97312
G1 X53.026 Y125.304 E8.98642
G1 X53.002 Y125.045 E8.99507
G1 X52.992 Y124.658 E9.00795
G1 X52.992 Y105.647 E9.64026
G1 X53.001 Y104.982 E9.66238
G1 X53.046 Y104.585 E9.67567
G1 X53.17 Y104.205 E9.68896
G1 X53.366 Y103.857 E9.70224
G1 X53.628 Y103.555 E9.71554
G1 X53.944 Y103.311 E9.72882
G0 F6000 X54.017 Y103.747
G1 F1200 X54.321 Y103.56 E9.74069
G1 X54.66 Y103.446 E9.75259
G1 X54.956 Y103.41 E9.7625
G1 X55.322 Y103.4 E9.77468
G1 X174.324 Y103.4 E13.7327
G1 X175.022 Y103.41 E13.75592
G1 X175.376 Y103.455 E13.76779
G1 X175.712 Y103.578 E13.77969
G1 X176.012 Y103.771 E13.79156
G1 X176.261 Y104.027 E13.80343
G1 X176.448 Y104.332 E13.81533
G1 X176.562 Y104.67 E13.8272
G1 X176.598 Y104.965 E13.83708
G1 X176.608 Y105.33 E13.84923
G1 X176.608 Y124.284 E14.47964
G1 X176.599 Y125.011 E14.50382
G1 X176.555 Y125.365 E14.51569
G1 X176.433 Y125.701 E14.52758
G1 X176.24 Y126.001 E14.53944
G1 X175.984 Y126.252 E14.55136
G1 X175.68 Y126.439 E14.56324
G1 X175.342 Y126.554 E14.57511
G1 X175.044 Y126.59 E14.58509
G1 X174.678 Y126.6 E14.59727
G1 X55.678 Y126.6 E18.55523
G1 X54.98 Y126.591 E18.57845
G1 X54.626 Y126.546 E18.59031
G1 X54.29 Y126.424 E18.6022
G1 X53.99 Y126.231 E18.61407
G1 X53.74 Y125.976 E18.62595
G1 X53.553 Y125.671 E18.63784
G1 X53.438 Y125.333 E18.64972
G1 X53.402 Y125.034 E18.65974
G1 X53.392 Y124.658 E18.67225
G1 X53.392 Y105.652 E19.30439
G1 X53.401 Y104.987 E19.32651
G1 X53.446 Y104.633 E19.33838
G1 X53.568 Y104.297 E19.35027
G1 X53.762 Y103.997 E19.36215
G1 X54.017 Y103.747 E19.37403
G0 F6000 X54.401 Y103.97
G1 F1200 X54.686 Y103.851 E19.3843
G1 X54.967 Y103.809 E19.39375
G1 X55.288 Y103.8 E19.40443
G1 X174.318 Y103.8 E23.36338
G1 X175.016 Y103.81 E23.3866
G1 X175.322 Y103.854 E23.39688
G1 X175.607 Y103.975 E23.40718
G1 X175.851 Y104.165 E23.41747
G1 X176.039 Y104.411 E23.42777
G1 X176.157 Y104.696 E23.43802
G1 X176.199 Y104.976 E23.44744
G1 X176.208 Y105.296 E23.45809
G1 X176.208 Y124.279 E24.08947
G1 X176.199 Y125.006 E24.11365
G1 X176.155 Y125.312 E24.12393
G1 X176.035 Y125.597 E24.13422
G1 X175.846 Y125.841 E24.14448
G1 X175.6 Y126.029 E24.15478
G1 X175.315 Y126.149 E24.16506
G1 X175.033 Y126.191 E24.17455
G1 X174.712 Y126.2 E24.18523
G1 X55.684 Y126.2 E28.14411
G1 X54.986 Y126.191 E28.16733
G1 X54.679 Y126.147 E28.17765
G1 X54.395 Y126.027 E28.1879
G1 X54.15 Y125.837 E28.19821
G1 X53.962 Y125.592 E28.20849
G1 X53.843 Y125.306 E28.21879
G1 X53.801 Y125.023 E28.2283
G1 X53.792 Y124.69 E28.23938
G1 X53.792 Y105.658 E28.87239
G1 X53.801 Y104.993 E28.89451
G1 X53.845 Y104.687 E28.90479
G1 X53.966 Y104.402 E28.91509
G1 X54.155 Y104.158 E28.92536
G1 X54.401 Y103.97 E28.93565
G1 F1500 E22.43565
;MESH:front.stl
G0 F6000 X118.891 Y112.478
G0 X126.138 Y113.381
G0 X135.71 Y114.699
G0 X133.477 Y114.361
G0 X135.57 Y117.319
G0 X136.348 Y117.94
G0 X137.275 Y118.303
G0 X142.159 Y118.822
G0 X142.394 Y119.439
G0 X142.815 Y119.934
G0 X143.397 Y120.27
G0 X144.047 Y120.386
G0 X157.066 Y120.385
G0 X157.716 Y120.236
G0 X160.167 Y118.648
G0 X161.197 Y119.06
;TYPE:WALL-INNER
G1 F1500 E28.93565
G1 F1200 X161.608 Y119.221 E28.95034
G1 X162.028 Y119.337 E28.96483
G1 X162.46 Y119.414 E28.97942
G1 X162.898 Y119.447 E28.99403
G1 X163.337 Y119.436 E29.00864
G1 X163.774 Y119.381 E29.02329
G1 X164.201 Y119.284 E29.03785
G1 X164.615 Y119.145 E29.05238
G1 X165.014 Y118.966 E29.06692
G1 X165.399 Y118.744 E29.0817
G1 X165.753 Y118.488 E29.09623
G1 X166.082 Y118.199 E29.1108
G1 X166.38 Y117.876 E29.12541
G1 X166.642 Y117.53 E29.13985
G1 X166.852 Y117.194 E29.15303
G1 X167.061 Y116.763 E29.16896
G1 X167.213 Y116.347 E29.18369
G1 X167.217 Y116.329 E29.1843
G1 X167.324 Y115.92 E29.19836
G1 X167.389 Y115.486 E29.21296
G1 X167.411 Y115.047 E29.22758
G1 X167.389 Y114.609 E29.24217
G1 X167.324 Y114.175 E29.25676
G1 X167.213 Y113.747 E29.27147
G1 X167.063 Y113.338 E29.28596
G1 X166.875 Y112.944 E29.30048
G1 X166.645 Y112.567 E29.31517
G1 X166.38 Y112.218 E29.32974
G1 X166.081 Y111.896 E29.34436
G1 X165.753 Y111.607 E29.3589
G1 X165.397 Y111.351 E29.37348
G1 X165.017 Y111.132 E29.38807
G1 X164.66 Y110.968 E29.40113
G1 X164.206 Y110.812 E29.4171
G1 X163.774 Y110.714 E29.43183
G1 X163.388 Y110.664 E29.44478
G1 X162.953 Y110.645 E29.45926
G1 X162.467 Y110.678 E29.47546
G1 X162.072 Y110.747 E29.4888
G1 X161.612 Y110.874 E29.50467
G1 X161.355 Y110.975 E29.51386
G1 X161.2 Y111.035 E29.51939
G1 X161.112 Y111.08 E29.52267
G1 X161.107 Y111.061
G1 X161.063 Y110.9 E29.52666
G1 X160.977 Y110.593 E29.53726
G1 X160.764 Y110.144 E29.55379
G1 X160.482 Y109.738 E29.57023
G1 X160.102 Y109.351 E29.58827
G1 X159.691 Y109.059 E29.60504
G1 X159.2 Y108.828 E29.62309
G1 X158.712 Y108.693 E29.63993
G1 X158.226 Y108.648 E29.65616
G1 X142.692 Y108.649 E30.17282
G1 X142.222 Y108.711 E30.18859
G1 X141.702 Y108.875 E30.20673
G1 X141.259 Y109.107 E30.22336
G1 X140.853 Y109.415 E30.24031
G1 X140.514 Y109.773 E30.25671
G1 X140.239 Y110.186 E30.27321
G1 X140.016 Y110.682 E30.2913
G1 X139.947 Y110.962 E30.30089
G1 X139.931 Y111.031 E30.30324
G1 X139.918 Y111.082 E30.30499
G1 X139.67 Y110.968 E30.31089
G1 X139.603 Y110.945 E30.31296
G1 X139.216 Y110.812 E30.32657
G1 X138.784 Y110.714 E30.3413
G1 X138.398 Y110.664 E30.35425
G1 X137.963 Y110.645 E30.36873
G1 X137.477 Y110.678 E30.38493
G1 X137.082 Y110.747 E30.39827
G1 X136.622 Y110.874 E30.41414
G1 X136.21 Y111.035 E30.42885
G1 X135.818 Y111.235 E30.44349
G1 X135.448 Y111.474 E30.45814
G1 X135.106 Y111.748 E30.47271
G1 X134.792 Y112.053 E30.48727
G1 X134.511 Y112.388 E30.50182
G1 X134.289 Y112.712 E30.51488
G1 X134.055 Y113.133 E30.5309
G1 X133.883 Y113.542 E30.54566
G1 X133.753 Y113.961 E30.56025
G1 X133.666 Y114.39 E30.57481
G1 X133.622 Y114.828 E30.58945
G1 X133.622 Y115.267 E30.60405
G1 X133.666 Y115.705 E30.61869
G1 X133.753 Y116.134 E30.63325
G1 X133.883 Y116.553 E30.64784
G1 X134.052 Y116.955 E30.66235
G1 X134.261 Y117.344 E30.67703
G1 X134.51 Y117.706 E30.69165
G1 X134.793 Y118.043 E30.70628
G1 X135.106 Y118.347 E30.7208
G1 X135.448 Y118.621 E30.73537
G1 X135.818 Y118.86 E30.75002
G1 X136.207 Y119.06 E30.76457
G1 X136.618 Y119.221 E30.77925
G1 X137.038 Y119.337 E30.79374
G1 X137.47 Y119.414 E30.80834
G1 X137.908 Y119.447 E30.82295
G1 X138.347 Y119.436 E30.83755
G1 X138.784 Y119.381 E30.8522
G1 X139.211 Y119.284 E30.86677
G1 X139.625 Y119.145 E30.88129
G1 X140.024 Y118.966 E30.89584
G1 X140.409 Y118.744 E30.91062
G1 X140.671 Y118.554 E30.92138
G1 X140.763 Y118.488 E30.92515
G1 X140.989 Y118.29 E30.93514
G1 X141.016 Y118.443 E30.93575
G1 X141.035 Y118.555 E30.93895
G1 X141.125 Y119.061 E30.95604
G1 X141.261 Y119.537 E30.97251
G1 X141.482 Y119.986 E30.98915
G1 X141.782 Y120.401 E31.00619
G1 X142.129 Y120.748 E31.02251
G1 X142.534 Y121.036 E31.03904
G1 X143.025 Y121.267 E31.05708
G1 X143.513 Y121.402 E31.07393
G1 X143.999 Y121.447 E31.09016
G1 X157.135 Y121.446 E31.52706
G1 X157.605 Y121.384 E31.54283
G1 X158.124 Y121.22 E31.56093
G1 X158.571 Y120.988 E31.57769
G1 X159.001 Y120.656 E31.59575
G1 X159.34 Y120.287 E31.61242
G1 X159.617 Y119.857 E31.62943
G1 X159.811 Y119.41 E31.64564
G1 X159.909 Y119.019 E31.65905
G1 X159.981 Y118.611 E31.67283
G1 X160.029 Y118.336 E31.68211
G1 X160.038 Y118.29 E31.68367
G1 X160.096 Y118.347 E31.68463
G1 X160.314 Y118.522 E31.69059
G1 X160.438 Y118.621 E31.69587
G1 X160.808 Y118.86 E31.71052
G1 X161.197 Y119.06 E31.72507
G0 F6000 X161.362 Y118.695
G1 F1200 X161.735 Y118.841 E31.73839
G1 X162.117 Y118.947 E31.75158
G1 X162.51 Y119.017 E31.76486
G1 X162.908 Y119.047 E31.77813
G1 X163.307 Y119.037 E31.79141
G1 X163.704 Y118.987 E31.80471
G1 X164.093 Y118.898 E31.81799
G1 X164.469 Y118.772 E31.83118
G1 X164.832 Y118.609 E31.84441
G1 X165.181 Y118.408 E31.85781
G1 X165.503 Y118.175 E31.87103
G1 X165.802 Y117.912 E31.88427
G1 X166.073 Y117.619 E31.89754
G1 X166.312 Y117.303 E31.91072
G1 X166.501 Y117 E31.9226
G1 X166.692 Y116.606 E31.93716
G1 X166.831 Y116.228 E31.95056
G1 X166.835 Y116.209 E31.9512
G1 X166.931 Y115.84 E31.96389
G1 X166.99 Y115.446 E31.97714
G1 X167.01 Y115.047 E31.99042
G1 X166.99 Y114.649 E32.00368
G1 X166.931 Y114.255 E32.01693
G1 X166.831 Y113.866 E32.03029
G1 X166.694 Y113.493 E32.0435
G1 X166.523 Y113.135 E32.0567
G1 X166.314 Y112.793 E32.07003
G1 X166.073 Y112.475 E32.0833
G1 X165.802 Y112.183 E32.09655
G1 X165.503 Y111.92 E32.1098
G1 X165.197 Y111.7 E32.12233
G1 X165.18 Y111.687 E32.12304
G1 X164.834 Y111.488 E32.13632
G1 X164.511 Y111.34 E32.14814
G1 X164.096 Y111.197 E32.16274
G1 X163.704 Y111.108 E32.1761
G1 X163.354 Y111.063 E32.18784
G1 X162.958 Y111.046 E32.20102
G1 X162.515 Y111.076 E32.21579
G1 X162.16 Y111.138 E32.22778
G1 X161.738 Y111.254 E32.24234
G1 X161.364 Y111.4 E32.25569
G1 X161.294 Y111.435 E32.25829
G1 X161.108 Y111.531 E32.26525
G1 X161.008 Y111.582 E32.26899
G1 X160.795 Y111.719 E32.27741
G1 X160.759 Y111.743 E32.27885
G1 X160.765 Y111.674
G1 X160.76 Y111.601
G1 X160.752 Y111.489 E32.28199
G1 X160.729 Y111.198 E32.2917
G1 X160.601 Y110.733 E32.30774
G1 X160.417 Y110.345 E32.32203
G1 X160.173 Y109.994 E32.33624
G1 X159.842 Y109.657 E32.35196
G1 X159.488 Y109.406 E32.36639
G1 X159.06 Y109.204 E32.38213
G1 X158.64 Y109.088 E32.39662
G1 X158.208 Y109.048 E32.41105
G1 X142.718 Y109.049 E32.92625
G1 X142.309 Y109.103 E32.93997
G1 X141.856 Y109.246 E32.95577
G1 X141.474 Y109.446 E32.97011
G1 X141.121 Y109.714 E32.98486
G1 X140.828 Y110.023 E32.99902
G1 X140.59 Y110.38 E33.01329
G1 X140.396 Y110.813 E33.02907
G1 X140.292 Y111.235 E33.04353
G1 X140.28 Y111.409 E33.04933
G1 X140.263 Y111.668 E33.05796
G1 X140.261 Y111.693 E33.05879
G1 X140.26 Y111.703 E33.05913
G1 X140.264 Y111.74 E33.06037
G1 X140.244 Y111.726
G1 X140.19 Y111.687 E33.0614
G1 X139.966 Y111.558 E33.06703
G1 X139.844 Y111.488 E33.0717
G1 X139.521 Y111.34 E33.08352
G1 X139.106 Y111.197 E33.09812
G1 X138.714 Y111.108 E33.11149
G1 X138.364 Y111.063 E33.12323
G1 X137.968 Y111.046 E33.13641
G1 X137.525 Y111.076 E33.15118
G1 X137.17 Y111.138 E33.16317
G1 X136.748 Y111.254 E33.17772
G1 X136.374 Y111.4 E33.19107
G1 X136.018 Y111.582 E33.20437
G1 X135.682 Y111.799 E33.21768
G1 X135.371 Y112.048 E33.23093
G1 X135.085 Y112.326 E33.24419
G1 X134.83 Y112.63 E33.25739
G1 X134.629 Y112.923 E33.26921
G1 X134.415 Y113.308 E33.28386
G1 X134.259 Y113.679 E33.29724
G1 X134.141 Y114.06 E33.31051
G1 X134.062 Y114.45 E33.32375
G1 X134.022 Y114.848 E33.33705
G1 X134.022 Y115.247 E33.35032
G1 X134.062 Y115.645 E33.36362
G1 X134.141 Y116.035 E33.37686
G1 X134.259 Y116.416 E33.39013
G1 X134.413 Y116.782 E33.40333
G1 X134.603 Y117.135 E33.41667
G1 X134.829 Y117.464 E33.42994
G1 X135.086 Y117.77 E33.44323
G1 X135.371 Y118.047 E33.45645
G1 X135.682 Y118.296 E33.4697
G1 X136.018 Y118.513 E33.48301
G1 X136.372 Y118.695 E33.49624
G1 X136.745 Y118.841 E33.50957
G1 X137.127 Y118.947 E33.52275
G1 X137.52 Y119.017 E33.53603
G1 X137.918 Y119.047 E33.5493
G1 X138.317 Y119.037 E33.56258
G1 X138.714 Y118.987 E33.57589
G1 X139.103 Y118.898 E33.58916
G1 X139.479 Y118.772 E33.60235
G1 X139.842 Y118.609 E33.61558
G1 X140.191 Y118.408 E33.62898
G1 X140.513 Y118.175 E33.6422
G1 X140.812 Y117.912 E33.65544
G1 X140.941 Y117.773 E33.66175
G1 X141.083 Y117.619 E33.66872
G1 X141.24 Y117.412 E33.67736
G1 X141.27 Y117.585 E33.67811
G1 X141.306 Y117.791 E33.68344
G1 X141.515 Y118.971 E33.72329
G1 X141.636 Y119.392 E33.73786
G1 X141.826 Y119.779 E33.7522
G1 X142.087 Y120.141 E33.76705
G1 X142.11 Y120.163 E33.7681
G1 X142.388 Y120.441 E33.78118
G1 X142.737 Y120.689 E33.79542
G1 X143.165 Y120.891 E33.81116
G1 X143.585 Y121.007 E33.82565
G1 X144.017 Y121.047 E33.84008
G1 X157.109 Y121.046 E34.27553
G1 X157.518 Y120.992 E34.28925
G1 X157.97 Y120.849 E34.30501
G1 X158.355 Y120.649 E34.31944
G1 X158.73 Y120.36 E34.33519
G1 X159.022 Y120.042 E34.34955
G1 X159.263 Y119.668 E34.36435
G1 X159.431 Y119.281 E34.37838
G1 X159.518 Y118.935 E34.39025
G1 X159.725 Y117.757 E34.43003
G1 X159.733 Y117.71 E34.43161
G1 X159.778 Y117.457 E34.44016
G1 X159.786 Y117.416 E34.44155
G1 X159.819 Y117.464
G1 X160.076 Y117.77 E34.44974
G1 X160.11 Y117.803 E34.45123
G1 X160.361 Y118.047 E34.46287
G1 X160.672 Y118.296 E34.47612
G1 X161.008 Y118.513 E34.48943
G1 X161.362 Y118.695 E34.50267
G0 F6000 X161.527 Y118.33
G1 F1200 X161.862 Y118.461 E34.51463
G1 X162.206 Y118.557 E34.52651
G1 X162.56 Y118.62 E34.53847
G1 X162.918 Y118.647 E34.55041
G1 X163.277 Y118.638 E34.56235
G1 X163.634 Y118.593 E34.57432
G1 X163.984 Y118.513 E34.58626
G1 X164.323 Y118.399 E34.59816
G1 X164.65 Y118.252 E34.61008
G1 X164.963 Y118.072 E34.62209
G1 X165.253 Y117.862 E34.634
G1 X165.522 Y117.625 E34.64592
G1 X165.766 Y117.362 E34.65786
G1 X165.982 Y117.076 E34.66978
G1 X166.15 Y116.806 E34.68035
G1 X166.324 Y116.449 E34.69356
G1 X166.449 Y116.109 E34.70561
G1 X166.538 Y115.761 E34.71756
G1 X166.591 Y115.406 E34.7295
G1 X166.609 Y115.047 E34.74145
G1 X166.591 Y114.689 E34.75337
G1 X166.538 Y114.334 E34.76531
G1 X166.449 Y113.985 E34.77729
G1 X166.325 Y113.649 E34.7892
G1 X166.171 Y113.326 E34.80111
G1 X165.983 Y113.019 E34.81308
G1 X165.766 Y112.733 E34.82502
G1 X165.522 Y112.47 E34.83695
G1 X165.253 Y112.233 E34.84888
G1 X164.963 Y112.023 E34.86078
G1 X164.651 Y111.844 E34.87275
G1 X164.362 Y111.712 E34.88332
G1 X163.986 Y111.582 E34.89655
G1 X163.634 Y111.502 E34.90855
G1 X163.32 Y111.462 E34.91908
G1 X162.963 Y111.447 E34.93097
G1 X162.563 Y111.474 E34.9443
G1 X162.247 Y111.529 E34.95497
G1 X161.864 Y111.634 E34.96818
G1 X161.528 Y111.765 E34.98017
G1 X161.208 Y111.929 E34.99213
G1 X160.906 Y112.124 E35.00409
G1 X160.678 Y112.307 E35.01381
G1 X160.626 Y112.348 E35.01601
G1 X160.368 Y112.599 E35.02799
G1 X160.192 Y112.809 E35.0371
G1 X160.232 Y112.576 E35.03817
G1 X160.283 Y112.288 E35.04498
G1 X160.294 Y112.222 E35.04707
G1 X160.334 Y112.004 E35.05445
G1 X160.364 Y111.671 E35.06557
G1 X160.333 Y111.267 E35.07904
G1 X160.225 Y110.873 E35.09263
G1 X160.07 Y110.546 E35.10467
G1 X159.864 Y110.25 E35.11666
G1 X159.582 Y109.963 E35.13004
G1 X159.285 Y109.753 E35.14214
G1 X158.92 Y109.58 E35.15558
G1 X158.568 Y109.483 E35.16772
G1 X158.19 Y109.448 E35.18035
G1 X142.744 Y109.449 E35.69408
G1 X142.396 Y109.495 E35.70576
G1 X142.01 Y109.617 E35.71922
G1 X141.689 Y109.785 E35.73127
G1 X141.389 Y110.013 E35.7438
G1 X141.142 Y110.274 E35.75576
G1 X140.941 Y110.574 E35.76777
